X: 1
T:A and D
% Nottingham Music Database
S:EF
M:6/8
K:D
P:C
(3EE/2D/2F/2|"G"GAB "G"A2B|"G/G"G2"E"FGB "F#7"BcA|
"D"A3 "A/fie"eaA|"A"c^ca "D"fed|"A"cBA "Eb"B2A|
"Am"cef cBc|"D"faf "A"fec|"Em"a3 e^f'|"Em"e3 ef:|


